X: 30
T: Salamanca Reel
S: Bernie Waugh
R: Reel
M: 4/4
L: 1/8
K: D
|:dB|"D"AD (3FED AD (3FED|Adcd fedc|"Em"BE E2 BE E2|Bded cdeg|!
"Bm"fB B2 fB B2|faef dfag|"D"(3fga ec "G"dABG|"A"FGEF "D"D2:|!
|:zf|"D"afdf "G"bgeg|"A"fded "D"dcBA|Add2 defg|"G"(3aba gb "F#m"a2fg|!
"D"[d3a3]f "C"[=c3g3]e|"Bm"[B2f2] ef dfag|"D"(3fga ec "G"dABG|"A"FGEF "D"D2:|

